dist/img/footer-page.svg

<svg width="30" height="30" viewBox="0 0 30 30" fill="none" xmlns="http://www.w3.org/2000/svg">
<path d="M22.05 9H4.95C4.42533 9 4 9.41973 4 9.9375V23.0625C4 23.5803 4.42533 24 4.95 24H22.05C22.5747 24 23 23.5803 23 23.0625V9.9375C23 9.41973 22.5747 9 22.05 9Z" stroke="#FF5449" stroke-width="1.5" stroke-linecap="round" stroke-linejoin="round"/>
<path d="M8 9V6.9375C8 6.68886 8.09482 6.4504 8.2636 6.27459C8.43239 6.09877 8.66131 6 8.9 6H25.1C25.3387 6 25.5676 6.09877 25.7364 6.27459C25.9052 6.4504 26 6.68886 26 6.9375V20.0625C26 20.3111 25.9052 20.5496 25.7364 20.7254C25.5676 20.9012 25.3387 21 25.1 21H23" stroke="#FF5449" stroke-width="1.5" stroke-linecap="round" stroke-linejoin="round"/>
<path d="M4 13H23" stroke="#FF5449" stroke-width="1.5" stroke-linecap="round" stroke-linejoin="round"/>
</svg>

<svg width="30" height="30" fill="none" xmlns="http://www.w3.org/2000/svg"><path d="M22.05 9H4.95c-.525 0-.95.42-.95.938v13.124c0 .518.425.938.95.938h17.1c.525 0 .95-.42.95-.938V9.938A.944.944 0 0022.05 9z" stroke="#FF5449" stroke-width="1.5" stroke-linecap="round" stroke-linejoin="round"/><path d="M8 9V6.937c0-.248.095-.487.264-.662A.882.882 0 018.9 6h16.2a.88.88 0 01.636.275.958.958 0 01.264.662v13.125a.958.958 0 01-.264.663.882.882 0 01-.636.275H23M4 13h19" stroke="#FF5449" stroke-width="1.5" stroke-linecap="round" stroke-linejoin="round"/></svg>
